src/icons/svg/session.svg

<svg width="40px" height="40.0018439px" viewBox="0 0 40 40.0018439" version="1.1" xmlns="http://www.w3.org/2000/svg"
>
    <path d="M9.35536124,40.0018149 C4.18770182,40.0004462 -0.000892614699,35.8105124 1.42685252e-07,30.6424065 C0.000446735473,28.1610371 0.986654912,25.7814583 2.74165009,24.0269096 L9.36339734,17.4051623 C10.0906645,16.6778952 11.2697391,16.6778952 11.9970062,17.4051623 L12.0103997,17.4185558 C12.7372204,18.1453765 12.7376669,19.3240047 12.0112926,20.0512718 L5.38418798,26.6881984 C3.10416753,28.7896388 2.95951772,32.3415954 5.06095814,34.6216159 C7.16239856,36.9016363 10.7143552,37.0462861 12.9943757,34.9448457 C13.1082204,34.83993 13.2180471,34.7301032 13.3229629,34.615812 L19.9496211,28.0016544 C20.6768882,27.2757266 21.854177,27.2761731 22.5814442,28.0021009 L22.592159,28.0128157 C23.3207655,28.7405293 23.3207655,29.9209432 22.592159,30.6486568 L15.9730904,37.2583499 C14.2222142,39.0201135 11.8391767,40.0080218 9.35536124,40.0018149 L9.35536124,40.0018149 Z M14.6341867,25.3434908 C13.9095983,24.6157772 13.9109376,23.4384884 14.6368654,22.7125606 L22.5948377,14.7550348 C23.3221048,14.0277676 24.5011794,14.0277676 25.2284466,14.7550348 L25.2422865,14.7688747 C25.9691072,15.4956954 25.9695537,16.6738771 25.2436259,17.4011443 L17.3186909,25.3430443 C16.5780303,26.0854908 15.3752938,26.0859372 14.6341867,25.3434908 L14.6341867,25.3434908 Z M27.8776812,22.6960419 C27.1562179,21.9683283 27.1580037,20.7946111 27.8821457,20.0691298 L34.5007678,13.4380071 C36.7839134,11.3396918 36.9334742,7.78818163 34.8351589,5.50503603 C32.7368436,3.22189044 29.1853334,3.07232967 26.9021878,5.17064494 C26.7879848,5.27554712 26.6782113,5.38517167 26.5731541,5.49923218 L19.9362276,12.1236581 C19.208514,12.8495859 18.0303323,12.8491395 17.3035116,12.1223188 L17.2901181,12.1089253 C16.562851,11.3816581 16.562851,10.2021371 17.2905646,9.47486994 L23.9118654,2.85669429 C27.5022167,-0.860448883 33.4261625,-0.963578847 37.1433057,2.62677251 C40.8604489,6.21712388 40.9635788,12.1410697 37.3732275,15.8582129 C37.2977774,15.9363416 37.2214345,16.0126846 37.1433057,16.0881346 L30.5157546,22.7031851 C29.7862552,23.4313452 28.603609,23.42822 27.8776812,22.6960419 L27.8776812,22.6960419 Z"
          id="形状"></path>
</svg>

<svg width="40" height="40.002" xmlns="http://www.w3.org/2000/svg"><path d="M9.355 40.002a9.358 9.358 0 0 1-6.613-15.975l6.621-6.622a1.862 1.862 0 0 1 2.634 0l.013.014a1.862 1.862 0 0 1 .001 2.632l-6.627 6.637a5.614 5.614 0 1 0 7.939 7.928l6.627-6.614a1.862 1.862 0 0 1 2.631 0l.011.01a1.862 1.862 0 0 1 0 2.637l-6.619 6.61a9.297 9.297 0 0 1-6.618 2.743zm5.28-14.659a1.863 1.863 0 0 1 .002-2.63l7.958-7.958a1.862 1.862 0 0 1 2.633 0l.014.014c.727.727.728 1.905.002 2.632l-7.925 7.942a1.896 1.896 0 0 1-2.685 0zm13.243-2.647a1.862 1.862 0 0 1 .004-2.627l6.619-6.631a5.614 5.614 0 1 0-7.928-7.939l-6.637 6.625a1.863 1.863 0 0 1-2.632-.002l-.014-.013a1.862 1.862 0 0 1 0-2.634l6.622-6.618a9.357 9.357 0 1 1 13.231 13.231l-6.627 6.615a1.862 1.862 0 0 1-2.638-.007z"/></svg>
